X:1
L:1/8
M:4/4
K:D
 (D2 AD){E} (EDA>D) | (D2 AG) (EG-G>E) | (D2 AD){G} (EDEG) |1 (Ad{e}dB){d} (cAGE) :|2 
 (AcGE) ED D2 || (A>d-d>e) (d2 c)(d | e)(dc)(d e)(dc)(d | e)(ga)(g e)(dc)(d | e)d (3ddd (ed) d2 | 
 (ea-a.g) (eg-g.e) | (dfe)d (cAG)E | (D2{G} ED) (EA-AB) | (cde)d (cAG)E ||
